lib/brands/icons/internet-explorer.svg

<svg xmlns="http://www.w3.org/2000/svg" fill="none" aria-hidden="true" viewBox="0 0 48 48"><g id="internet-explorer-Icon"><path id="Vector" fill="#21B5E7" d="M41.7382 16.4771C42.5863 14.5571 43.412 11.7553 43.412 9.61214C43.412 3.93073 37.19 1.9269 27.0313 6.59831C18.6225 6.0373 10.5296 12.3538 8.50797 21.1653C10.9183 18.4417 14.6229 14.7357 18.0374 13.2623C13.7972 17.0352 10.1819 21.8127 7.43688 26.7911C5.81609 29.754 4 34.5422 4 38.1209C4 45.8221 11.2542 44.8787 18.0821 41.4026C20.537 42.6081 23.282 42.6193 26.027 42.6193C33.6149 42.6193 40.4215 38.3775 42.9656 31.2113H33.5256C29.4233 38.1326 18.1491 35.3516 18.1491 27.5054H43.836C44.3365 24.1006 43.7067 20.0276 41.7382 16.4771V16.4771ZM9.04367 31.0998C10.4273 35.0959 13.2392 38.5897 16.877 40.7329C9.94407 44.5564 3.34047 43.0061 9.04367 31.0998V31.0998ZM18.1044 22.5941C18.2606 18.2854 22.0322 15.1823 26.2278 15.1823C30.4011 15.1823 34.1951 18.2854 34.3513 22.5941H18.1044ZM32.5213 7.93784C34.1951 7.13417 36.3153 6.21886 38.1899 6.21886C40.6447 6.21886 42.43 7.9155 42.43 10.4159C42.43 11.9786 41.8498 14.2446 41.2918 15.718C39.2387 12.4139 36.1367 9.34425 32.5213 7.93784V7.93784Z"/></g></svg>

<svg xmlns="http://www.w3.org/2000/svg" fill="none" aria-hidden="true" viewBox="0 0 48 48"><path fill="#21B5E7" d="M41.738 16.477c.848-1.92 1.674-4.722 1.674-6.865 0-5.681-6.222-7.685-16.38-3.014-8.41-.56-16.502 5.756-18.524 14.567 2.41-2.723 6.115-6.43 9.53-7.903-4.24 3.773-7.856 8.55-10.601 13.53C5.817 29.753 4 34.541 4 38.12c0 7.701 7.254 6.758 14.082 3.282 2.455 1.205 5.2 1.216 7.945 1.216 7.588 0 14.395-4.242 16.939-11.408h-9.44c-4.103 6.922-15.377 4.14-15.377-3.706h25.687c.5-3.404-.13-7.477-2.098-11.028ZM9.044 31.1c1.383 3.996 4.195 7.49 7.833 9.633C9.944 44.556 3.34 43.006 9.044 31.1Zm9.06-8.506c.157-4.309 3.928-7.412 8.124-7.412 4.173 0 7.967 3.103 8.123 7.412H18.104ZM32.521 7.938c1.674-.804 3.794-1.72 5.669-1.72 2.455 0 4.24 1.697 4.24 4.198 0 1.563-.58 3.829-1.138 5.302-2.053-3.304-5.155-6.374-8.77-7.78Z"/></svg>
